X: 3086
T: Bear Dance, The
R: polka
M: 2/4
K: Bminor
|:fB Bf/e/|fB B>c|dd cd|e2 de|
fB fB|fB B>c|dd cA|B2 B2:|
|:Bd Bd|cA A2|Bd Bd|e2 de|
fg/f/ ef/e/|de/d/ c2|B/c/d cA|B2 B2:|

